public/piece/anarcandy/wK.svg

<svg xmlns="http://www.w3.org/2000/svg" width="512" height="512" fill="none"><path fill="#00173C" d="M246.005 34a8 8 0 0 1 8-8h4a8 8 0 0 1 8 8v40.001h22.001a8 8 0 0 1 8 8v4a8 8 0 0 1-8 8h-22.001v13.701c22.614 3.673 41.262 19.165 49.4 39.931 54.335-23.589 114.128-10.58 139.014 32.524 21.782 37.728 10.226 87.087-24.911 122.457 2.612 7.532-.911 15.949-4.942 21.816-1.399 2.037-.772 4.968 1.319 6.284 7.91 4.98 12.585 12.181 14.876 20.617.396.102.778.202 1.147.3 3.508.937 5.564 4.117 5.467 7.748-.389 14.636-2.246 36.763-7.355 49.575-1.468 3.68-5.397 5.106-9.237 4.426-5.258 11.908-11.436 22.286-16.66 28.957a3.37 3.37 0 0 1-1.19.962c-8.827 24.888-32.579 42.712-60.493 42.712a63.9 63.9 0 0 1-40.104-14.073c-8.475 5.476-25.948 11.873-55.475 11.873h-2.2c-29.685 0-47.187-6.466-55.611-11.961a63.904 63.904 0 0 1-40.214 14.161c-27.98 0-51.777-17.908-60.555-42.888a3.404 3.404 0 0 1-.894-.802c-5.225-6.675-11.403-17.056-16.659-28.965-3.881.736-7.884-.68-9.369-4.402-5.109-12.812-6.965-34.939-7.355-49.575-.097-3.631 1.959-6.811 5.468-7.748.415-.111.849-.224 1.3-.339 2.296-8.423 6.972-15.613 14.876-20.585 2.09-1.315 2.707-4.24 1.308-6.277-4.023-5.855-7.54-14.249-4.958-21.77-35.173-35.373-46.749-84.759-24.957-122.503 24.862-43.062 84.564-56.088 138.858-32.592 8.24-20.956 27.187-36.527 50.106-39.978V94.002h-22.001a8 8 0 0 1-8-8v-4a8 8 0 0 1 8-8h22.001V34Z"/><path fill="#FFE7EB" d="M255.639 285.806c-7.537.192-15.861.49-24.613.905a5.118 5.118 0 0 0-4.864 5.342l.182 4.112c.18 4.092 3.676 7.237 7.767 7.045 7.339-.345 14.557-.537 21.528-.537 6.971 0 14.555.192 21.894.537 4.091.192 7.588-2.953 7.768-7.045l.181-4.112a5.117 5.117 0 0 0-4.864-5.342c-8.752-.415-17.443-.713-24.979-.905ZM163.555 302.409l-.533-5.144c-.288-2.777 1.697-5.278 4.47-5.601 10.684-1.244 21.976-2.276 33.228-3.115a4.385 4.385 0 0 1 4.692 3.999l.523 6.021c.315 3.625-2.364 6.818-5.985 7.172a912.785 912.785 0 0 0-28.102 3.206c-4.11.531-7.865-2.416-8.293-6.538ZM106.224 314.783c-6.062-7.92 7.577-13.924 29.848-18.366 4.333-.865 8.483 2.053 9.275 6.399l.81 4.448c.518 2.843-1.413 5.552-4.267 6.007-9.684 1.544-18.228 3.051-25.089 4.359-3.844.732-8.199.26-10.577-2.847ZM348.623 297.265l-.534 5.144c-.427 4.122-4.182 7.069-8.292 6.538a912.855 912.855 0 0 0-28.103-3.206c-3.621-.354-6.299-3.547-5.985-7.172l.523-6.021a4.386 4.386 0 0 1 4.692-3.999c11.252.839 22.544 1.871 33.228 3.115 2.774.323 4.759 2.824 4.471 5.601ZM405.421 314.783c6.062-7.92-7.578-13.924-29.848-18.366-4.333-.865-8.484 2.053-9.276 6.399l-.81 4.448c-.518 2.843 1.414 5.552 4.268 6.007 9.683 1.544 18.227 3.051 25.088 4.359 3.845.732 8.199.26 10.578-2.847ZM210.16 453.344c-27.448-53.799-75.176-47.885-98.573-37.016-1.719.799-3.778.282-4.74-1.352-.698-1.184-1.456-2.441-2.252-3.763-.688-1.141-1.405-2.33-2.137-3.562 14.7-3.377 31.855-6.541 46.796-8.731 10.86-1.592 18.947-11.231 18.05-22.171l-1.696-20.698c-.922-11.246-10.94-19.466-22.105-17.838-14.004 2.043-30.549 4.732-44.965 7.358 4.154-4.424 9.832-8.623 17.398-12.464 12.956-4.767 59.034-14.3 139.703-14.3 80.668 0 127.114 9.533 140.07 14.3 7.535 3.827 13.177 8.038 17.293 12.493-14.454-2.635-31.07-5.337-45.126-7.387-11.165-1.628-21.183 6.592-22.105 17.838l-1.696 20.698c-.897 10.94 7.19 20.579 18.051 22.171 15.01 2.2 32.254 5.384 47 8.778-.852 1.451-1.684 2.842-2.474 4.164l-.002.002-.001.002c-.649 1.085-1.27 2.123-1.851 3.11-.962 1.634-3.021 2.151-4.741 1.352-23.397-10.869-71.125-16.783-98.573 37.016-.725 1.421-1.867 2.636-3.334 3.266-7.201 3.09-23.129 7.767-42.511 7.767s-34.944-4.677-42.145-7.767c-1.466-.63-2.608-1.845-3.334-3.266Z"/><path fill="#FFE7EB" d="M88.478 393.075c-3.164-6.784-4.313-18.502-4.554-26.253-.06-1.922 1.213-3.606 3.385-4.102 8.589-1.963 29.878-5.115 45.836-7.106 6.912-.862 13.115 3.491 13.686 9.446l1.05 10.961c.555 5.793-4.452 10.898-11.176 11.741-14.117 1.77-31.427 4.742-41.657 7.479-2.622.702-5.552.018-6.57-2.166ZM422.901 393.075c3.164-6.784 4.313-18.502 4.554-26.253.06-1.922-1.213-3.606-3.385-4.102-8.589-1.963-29.878-5.115-45.836-7.106-6.912-.862-13.115 3.491-13.686 9.446l-1.05 10.961c-.555 5.793 4.452 10.898 11.176 11.741 14.117 1.77 31.427 4.742 41.657 7.479 2.622.702 5.552.018 6.57-2.166Z"/><path fill="#FF9CAE" d="M297.85 156.68c-17.267 10.383-31.484 23.627-42.12 38.344-10.848-15.01-25.421-28.489-43.157-38.962 6.194-17.513 22.898-30.06 42.532-30.06 19.864 0 36.729 12.843 42.745 30.678Z"/><path fill="#FF9CAE" fill-rule="evenodd" d="M256 269.673c70.85 0 139.207 9.729 162.589 21.807 27.891-29.45 36.739-69.635 18.911-100.513-22.803-39.496-80.615-48.809-129.127-20.801-26.929 15.548-45.332 39.328-52.476 64.166-7.143-24.838-25.546-48.618-52.475-64.166-48.512-28.008-106.325-18.695-129.128 20.801-17.808 30.845-8.998 70.977 18.822 100.419 23.551-12.034 92.218-21.713 162.884-21.713Zm169.532-25.342c-.975 5.887-10.324 2.745-11.003-3.184-1.141-9.969-4.243-19.722-9.469-28.773-11.368-19.69-30.639-32.339-52.628-36.886-2.381-.492-2.49-4.397-.06-4.456 28.654-.703 53.873 10.299 66.36 31.927 7.185 12.445 9.216 26.781 6.8 41.372Z" clip-rule="evenodd"/><path fill="#FF9CAE" d="M323.33 458.193c22.563-32.619 52.635-30.854 73.422-21.992-6.052 18.692-23.603 32.209-44.312 32.209a46.373 46.373 0 0 1-29.11-10.217ZM114.554 436.293c20.767-8.93 50.918-10.827 73.549 21.773a46.374 46.374 0 0 1-29.267 10.344c-20.674 0-38.202-13.472-44.282-32.117Z"/></svg>

<svg width="512" height="512" viewBox="0 0 512 512" fill="none" xmlns="http://www.w3.org/2000/svg">
<path d="M246.005 34.0002C246.005 29.5818 249.586 26 254.005 26H258.005C262.423 26 266.005 29.5818 266.005 34.0002V74.0011H288.006C292.424 74.0011 296.006 77.5829 296.006 82.0013V86.0014C296.006 90.4198 292.424 94.0016 288.006 94.0016H266.005V107.702C288.619 111.375 307.267 126.867 315.405 147.633C369.74 124.044 429.533 137.053 454.419 180.157C476.201 217.885 464.645 267.244 429.508 302.614C432.12 310.146 428.597 318.563 424.566 324.43C423.167 326.467 423.794 329.398 425.885 330.714C433.795 335.694 438.47 342.895 440.761 351.331C441.157 351.433 441.539 351.533 441.908 351.631C445.416 352.568 447.472 355.748 447.375 359.379C446.986 374.015 445.129 396.142 440.02 408.954C438.552 412.634 434.623 414.06 430.783 413.38C425.525 425.288 419.347 435.666 414.123 442.337C413.79 442.761 413.383 443.082 412.933 443.299C404.106 468.187 380.354 486.011 352.44 486.011C337.266 486.011 323.322 480.744 312.336 471.938C303.861 477.414 286.388 483.811 256.861 483.811H254.661C224.976 483.811 207.474 477.345 199.05 471.85C188.048 480.708 174.061 486.011 158.836 486.011C130.856 486.011 107.059 468.103 98.2806 443.123C97.9473 442.917 97.6441 442.65 97.3868 442.321C92.1617 435.646 85.984 425.265 80.7281 413.356C76.8466 414.092 72.8439 412.676 71.3593 408.954C66.25 396.142 64.3936 374.015 64.0038 359.379C63.9071 355.748 65.963 352.568 69.4717 351.631C69.8869 351.52 70.3205 351.407 70.7718 351.292C73.0677 342.869 77.7436 335.679 85.6477 330.707C87.7388 329.392 88.3547 326.467 86.9557 324.43C82.9332 318.575 79.416 310.181 81.9976 302.66C46.8249 267.287 35.2495 217.901 57.041 180.157C81.9032 137.095 141.605 124.069 195.899 147.565C204.139 126.609 223.086 111.038 246.005 107.587V94.0016H224.004C219.586 94.0016 216.004 90.4198 216.004 86.0014V82.0013C216.004 77.5829 219.586 74.0011 224.004 74.0011H246.005V34.0002Z" fill="#00173C"/>
<path d="M255.639 285.806C248.102 285.998 239.778 286.296 231.026 286.711C228.21 286.845 226.038 289.236 226.162 292.053L226.344 296.165C226.524 300.257 230.02 303.402 234.111 303.21C241.45 302.865 248.668 302.673 255.639 302.673C262.61 302.673 270.194 302.865 277.533 303.21C281.624 303.402 285.121 300.257 285.301 296.165L285.482 292.053C285.606 289.236 283.435 286.845 280.618 286.711C271.866 286.296 263.175 285.998 255.639 285.806Z" fill="#FFE7EB"/>
<path d="M163.555 302.409L163.022 297.265C162.734 294.488 164.719 291.987 167.492 291.664C178.176 290.42 189.468 289.388 200.72 288.549C203.116 288.37 205.204 290.155 205.412 292.548L205.935 298.569C206.25 302.194 203.571 305.387 199.95 305.741C190.366 306.679 180.906 307.775 171.848 308.947C167.738 309.478 163.983 306.531 163.555 302.409Z" fill="#FFE7EB"/>
<path d="M106.224 314.783C100.162 306.863 113.801 300.859 136.072 296.417C140.405 295.552 144.555 298.47 145.347 302.816L146.157 307.264C146.675 310.107 144.744 312.816 141.89 313.271C132.206 314.815 123.662 316.322 116.801 317.63C112.957 318.362 108.602 317.89 106.224 314.783Z" fill="#FFE7EB"/>
<path d="M348.623 297.265L348.089 302.409C347.662 306.531 343.907 309.478 339.797 308.947C330.738 307.775 321.279 306.679 311.694 305.741C308.073 305.387 305.395 302.194 305.709 298.569L306.232 292.548C306.44 290.155 308.529 288.37 310.924 288.549C322.176 289.388 333.468 290.42 344.152 291.664C346.926 291.987 348.911 294.488 348.623 297.265Z" fill="#FFE7EB"/>
<path d="M405.421 314.783C411.483 306.863 397.843 300.859 375.573 296.417C371.24 295.552 367.089 298.47 366.297 302.816L365.487 307.264C364.969 310.107 366.901 312.816 369.755 313.271C379.438 314.815 387.982 316.322 394.843 317.63C398.688 318.362 403.042 317.89 405.421 314.783Z" fill="#FFE7EB"/>
<path d="M210.16 453.344C182.712 399.545 134.984 405.459 111.587 416.328C109.868 417.127 107.809 416.61 106.847 414.976C106.149 413.792 105.391 412.535 104.595 411.213C103.907 410.072 103.19 408.883 102.458 407.651C117.158 404.274 134.313 401.11 149.254 398.92C160.114 397.328 168.201 387.689 167.304 376.749L165.608 356.051C164.686 344.805 154.668 336.585 143.503 338.213C129.499 340.256 112.954 342.945 98.5376 345.571C102.692 341.147 108.37 336.948 115.936 333.107C128.892 328.34 174.97 318.807 255.639 318.807C336.307 318.807 382.753 328.34 395.709 333.107C403.244 336.934 408.886 341.145 413.002 345.6C398.548 342.965 381.932 340.263 367.876 338.213C356.711 336.585 346.693 344.805 345.771 356.051L344.075 376.749C343.178 387.689 351.265 397.328 362.126 398.92C377.136 401.12 394.38 404.304 409.126 407.698C408.274 409.149 407.442 410.54 406.652 411.862L406.65 411.864L406.649 411.866C406 412.951 405.379 413.989 404.798 414.976C403.836 416.61 401.777 417.127 400.057 416.328C376.66 405.459 328.932 399.545 301.484 453.344C300.759 454.765 299.617 455.98 298.15 456.61C290.949 459.7 275.021 464.377 255.639 464.377C236.257 464.377 220.695 459.7 213.494 456.61C212.028 455.98 210.886 454.765 210.16 453.344Z" fill="#FFE7EB"/>
<path d="M88.4778 393.075C85.3144 386.291 84.165 374.573 83.9237 366.822C83.8638 364.9 85.1367 363.216 87.3091 362.72C95.8979 360.757 117.187 357.605 133.145 355.614C140.057 354.752 146.26 359.105 146.831 365.06L147.881 376.021C148.436 381.814 143.429 386.919 136.705 387.762C122.588 389.532 105.278 392.504 95.0483 395.241C92.4257 395.943 89.4957 395.259 88.4778 393.075Z" fill="#FFE7EB"/>
<path d="M422.901 393.075C426.065 386.291 427.214 374.573 427.455 366.822C427.515 364.9 426.242 363.216 424.07 362.72C415.481 360.757 394.192 357.605 378.234 355.614C371.322 354.752 365.119 359.105 364.548 365.06L363.498 376.021C362.943 381.814 367.95 386.919 374.674 387.762C388.791 389.532 406.101 392.504 416.331 395.241C418.953 395.943 421.883 395.259 422.901 393.075Z" fill="#FFE7EB"/>
<path d="M297.85 156.68C280.583 167.063 266.366 180.307 255.73 195.024C244.882 180.014 230.309 166.535 212.573 156.062C218.767 138.549 235.471 126.002 255.105 126.002C274.969 126.002 291.834 138.845 297.85 156.68Z" fill="#FF9CAE"/>
<path fill-rule="evenodd" clip-rule="evenodd" d="M256 269.673C326.85 269.673 395.207 279.402 418.589 291.48C446.48 262.03 455.328 221.845 437.5 190.967C414.697 151.471 356.885 142.158 308.373 170.166C281.444 185.714 263.041 209.494 255.897 234.332C248.754 209.494 230.351 185.714 203.422 170.166C154.91 142.158 97.0975 151.471 74.2943 190.967C56.486 221.812 65.296 261.944 93.1164 291.386C116.667 279.352 185.334 269.673 256 269.673ZM425.532 244.331C424.557 250.218 415.208 247.076 414.529 241.147C413.388 231.178 410.286 221.425 405.06 212.374C393.692 192.684 374.421 180.035 352.432 175.488C350.051 174.996 349.942 171.091 352.372 171.032C381.026 170.329 406.245 181.331 418.732 202.959C425.917 215.404 427.948 229.74 425.532 244.331Z" fill="#FF9CAE"/>
<path d="M323.33 458.193C345.893 425.574 375.965 427.339 396.752 436.201C390.7 454.893 373.149 468.41 352.44 468.41C341.425 468.41 331.303 464.586 323.33 458.193Z" fill="#FF9CAE"/>
<path d="M114.554 436.293C135.321 427.363 165.472 425.466 188.103 458.066C180.106 464.535 169.924 468.41 158.836 468.41C138.162 468.41 120.634 454.938 114.554 436.293Z" fill="#FF9CAE"/>
</svg>
